# random fun repeated a lot
vor summe 1 zf 100
rt zf 360
vor produkt zf 10 summe 1 zf 10
lk zf 360

vor summe 1 zf 100
rt zf 360
vor produkt zf 10 summe 1 zf 10
lk zf 360

vor summe 1 zf 100
rt zf 360
vor produkt zf 10 summe 1 zf 10
lk zf 360

vor summe 1 zf 100
rt zf 360
vor produkt zf 10 summe 1 zf 10
lk zf 360

vor summe 1 zf 100
rt zf 360
vor produkt zf 10 summe 1 zf 10
lk zf 360

vor summe 1 zf 100
rt zf 360
vor produkt zf 10 summe 1 zf 10
lk zf 360

vor summe 1 zf 100
rt zf 360
vor produkt zf 10 summe 1 zf 10
lk zf 360

vor summe 1 zf 100
rt zf 360
vor produkt zf 10 summe 1 zf 10
lk zf 360

vor summe 1 zf 100
rt zf 360
vor produkt zf 10 summe 1 zf 10
lk zf 360

vor summe 1 zf 100
rt zf 360
vor produkt zf 10 summe 1 zf 10
lk zf 360

vor summe 1 zf 100
rt zf 360
vor produkt zf 10 summe 1 zf 10
lk zf 360

vor summe 1 zf 100
rt zf 360
vor produkt zf 10 summe 1 zf 10
lk zf 360

vor summe 1 zf 100
rt zf 360
vor produkt zf 10 summe 1 zf 10
lk zf 360

vor summe 1 zf 100
rt zf 360
vor produkt zf 10 summe 1 zf 10
lk zf 360

vor summe 1 zf 100
rt zf 360
vor produkt zf 10 summe 1 zf 10
lk zf 360

vor summe 1 zf 100
rt zf 360
vor produkt zf 10 summe 1 zf 10
lk zf 360

vor summe 1 zf 100
rt zf 360
vor produkt zf 10 summe 1 zf 10
lk zf 360

vor summe 1 zf 100
rt zf 360
vor produkt zf 10 summe 1 zf 10
lk zf 360

vor summe 1 zf 100
rt zf 360
vor produkt zf 10 summe 1 zf 10
lk zf 360

vor summe 1 zf 100
rt zf 360
vor produkt zf 10 summe 1 zf 10
lk zf 360
