# draw upper right quadrant
ava 100
der 90
ava 100
der 90
ava 100
der 90
ava 100

# draw upper left quadrant
ava 100
der 90
ava 100
der 90
ava 100
der 90
ava 100

# draw lower left quadrant
ava 100
der 90
ava 100
der 90
ava 100
der 90
ava 100

# draw lower right quadrant
ava 100
der 90
ava 100
der 90
ava 100
der 90
ava 100
