machen :distance 100

# move to side of square
stob
vor quotient :distance 2
rt 90

# draw square
pd
vor quotient :distance 2
rt 90
vor :distance
rt 90
vor :distance
rt 90
vor :distance
rt 90
vor quotient :distance 2

# move back to center
stob
haus
