crear :distance 100

# move to side of square
psu
ava cociente :distance 2
der 90

# draw square
pd
ava cociente :distance 2
der 90
ava :distance
der 90
ava :distance
der 90
ava :distance
der 90
ava cociente :distance 2

# move back to center
psu
casa
