zu poly [ :length :angle ]
[
  wh 100
  [
    vor :length 
    rt :angle
  ]
]


zu outlinepoly [ :length :angle ]
[
  wh 100
  [
    vor :length 
    rt :angle
    vor :length 
    rt produkt 2 :angle
  ]
]


# try these
# outlinepoly 50 45
# outlinepoly 50 125
# outlinepoly 50 144

# poly 50 60
# poly 50 135
# poly 50 144
